X:997
T:Phyllis Waltz
C:Joe Buchanan's Scottish Tome - Page 581.0
I:581 0
Z:Carl Allison
C:L. Shurer
R:Waltz
L:1/4
M:3/4
K:G
D | "G"G3 | A2 G | "D7"c3- | c3 | c3 | B2 A | "G"d3- | d3 |
"E7"d3 | c2 B | "A7"E3 | E F G | B3 | A2 ^G | "D7"A e d | c A D |
"G"B3 | A2 G | "D7"c3- | c3 | c3 | B2 A | "G"d3- | d3 |
"E7"d3 | c2 B | "A7"E3 | E F G | "D7"B3 | "D7"A3 | "G"G3- | G3 |]
%%vskip 50
"G"D E F | G D E | "D7"F z f | e2 d | F z f | e2 d | "G"G z e | d3 |
"G"D E F | G D E | "Bm"F z g | f3 | f e d | "F#7"^c/e/ d c | "Bm"B3 | "D7"d/c/ A/F/ E/^E/ |
"G"D E F | G D E | "D7"F z f | e2 d | F z f | e2 d | "G"G z e | d3 |
"G"D E F | G F G | "Am"A z f | e3 | "D7"e d c | B/d/ c/A/ E/F/ | "G"G2 "D"F | "G"G3 |]
%%vskip 50
[K:D]"D"F2 B |B2 F | "Em"G2 c | "A7"c2 B | G A f | f2 e | "D7"FAe | e2 d | 
"D"F2 B | B2 F | "Em"G2 c | "A7"c2 B | Acg | f2 e | "D"d3- | d3 :|]

